!!!!SEGMENT: pl-kk--kk-i-313--003_anonim--sub-tuum-praesidium.krn
!!!cenid: 17xx:2115
!!!COM: Anonim
!!!COM-rismid: pe30004985
!!!CDT:
!!!CNT:
!!!OTL: Sub tuum praesidium
!!!PDT:
!!!AGN: Sacred
!!!SMS-siglum: PL-Kk
!!!SMS-shelfmark: Kk.I.313
!!!SMS-shelfwork: 003 W
!!!SMS-variant:
!!!SMS-altvar:
!!!NIFC-rismid: 1001147296
!!!URL-scan: http://repozytorium.nifc.pl/skany/pl-kk-nut--i-313
!!!ONB-nifc: UWAGA: utwory w zbiorze: 1. Veni sponsa,< 2. Haec est Virgo,< 3. Sub tuum praesidium
!!!AIN: 1 bass
!!!key:
**kern	**text
*Ibass	*
*I"Basso	*
*I'B.	*
*clefF4	*
*k[]	*
*a:	*
*M2/1	*
*met(c|)	*
=1	=1
!LO:TX:a:i:t=De B. V.\nMaria	!
1.E\	Sub
*2\right	*
2E\	Tu-
=2-	=2-
1C/,<	-um
!LO:TX:t=P:problem=kreska pseudotaktowa	!
1AA/	prae-
=3-	=3-
2.E\	-si-
!LO:TX:t=P:problem=kreska pseudotaktowa	!
4E\	-dium
2AA,</	.
2.A\	con-
=4-	=4-
.	.
(4G\	.
4F\	.
!LO:TX:t=P:problem=kreska pseudotaktowa	!
4E\)	.
2.D\	-fu-
!LO:TX:t=P:problem=kreska pseudotaktowa	!
4D\	-gi-
=5-	=5-
!LO:TX:t=P:problem=kreska pseudotaktowa	!
1E\,<	-m(us)
0r	.
=6-	=6-
.	.
!LO:TX:t=P:problem=kreska pseudotaktowa	!
1r	.
=7-	=7-
(2.A\	con-
!LO:TX:t=P:problem=kreska pseudotaktowa	!
4G\	.
4F\)	.
4E\	.
!LO:TX:t=P:problem=kreska pseudotaktowa	!
2D\	.
=8-	=8-
!LO:LB:g=original	!
2.G\	.
4F\	.
2E\	.
!LO:TX:t=P:problem=kreska pseudotaktowa	!
2D/	.
=9-	=9-
4C/	.
4BB/	.
4AA/	.
4D/	.
2.E\	-fu-
4E\	-gi-
=10-	=10-
!LO:TX:t=P:problem=kreska pseudotaktowa	!
1AA/,<	-m(us)
2.A\	San-
4G,<\	-cta
=11-	=11-
2F\	De-
!LO:TX:t=P:problem=kreska pseudotaktowa	!
2D\	-i
1.A\	Ge-
=12-	=12-
.	.
!LO:TX:t=P:problem=kreska pseudotaktowa	!
2AA/	-ni-
2D,<\	-trix
1G\	no-
=13-	=13-
.	.
!LO:TX:t=P:problem=kreska pseudotaktowa	!
2F#X\	-stras
1G\	de-
=14-	=14-
2E\	-pre-
1Fny\	-ca-
2E\	-ti-
=15-	=15-
1D\	-o-
!LO:TX:t=P:problem=kreska pseudotaktowa	!
1C/,<	-nes
=16-	=16-
00r	.
=17-	=17-
.	.
=18-	=18-
0r	.
=19-	=19-
!LO:TX:t=P:problem=kreska pseudotaktowa	!
1r	.
!LO:LB:g=original	!
2r	.
2E\	nè
=20-	=20-
*	*ij
2F\	nè
*	*Xij
2D\	de-
2.G\	-spi-
4GG/	-ci-
=21-	=21-
2C,</	-as
1A\	in
=22-	=22-
.	.
!LO:TX:t=P:problem=kreska pseudotaktowa	!
2A\	ne-
2G\	-ceſ-
!LO:TX:t=P:problem=kreska pseudotaktowa	!
2E\	-si-
=23-	=23-
2.F\	-ta-
4F\	-ti-
!LO:TX:t=P:problem=kreska pseudotaktowa	!
1E\,<	-b(us)
=24-	=24-
(1D\	no-
!LO:TX:t=P:problem=kreska pseudotaktowa	!
1C/)	.
=25-	=25-
1BB/	.
2.AA/	.
!LO:TX:t=P:problem=kreska pseudotaktowa	!
4BB/	.
=26-	=26-
2C/	.
2D/	.
1E\	.
=27-	=27-
0AA/;	-stris.
=28||-	=28||-
*M3/2	*
2A\	Sed
2A\	à
!LO:TX:t=P:problem=kreska pseudotaktowa	!
2A\	pe-
=29-	=29-
2.D/	-ri-
4D/	-cu-
!LO:TX:t=P:problem=kreska pseudotaktowa	!
2D/	-lis
=30-	=30-
!LO:LB:g=original	!
1G\	cun-
!LO:TX:t=P:problem=kreska pseudotaktowa	!
2G\	-ctis
=31-	=31-
2.c\	li-
4c\	-be-
4B\	-ra
4B\	nos
=32-	=32-
1c\	sem-
!LO:TX:t=P:problem=kreska pseudotaktowa	!
2C/	-p(er)
=33-	=33-
2r	.
*	*ij
2c\	sem-
!LO:TX:t=P:problem=kreska pseudotaktowa	!
2B\	-p(er)
*	*Xij
=34-	=34-
1c\	sem-
!LO:TX:t=P:problem=kreska pseudotaktowa	!
2G\	-p(er)
=35-	=35-
2r	.
2A\	sem-
!LO:TX:t=P:problem=kreska pseudotaktowa	!
2G#X\	-p(er)
=36-	=36-
*	*ij
1A\	sem-
!LO:TX:t=P:problem=kreska pseudotaktowa	!
2E\	-p(er)
*	*Xij
=37-	=37-
2r	.
2F\	sem-
2E\	-p(er)
=38-	=38-
*	*ij
1F\	sem-
!LO:TX:t=P:problem=kreska pseudotaktowa	!
2C/	-p(er)
*	*Xij
=39-	=39-
!LO:N:vis=0	!
0.r	.
=40-	=40-
.	.
=41-	=41-
2.Gny\	Vir-
4G\,<	-go
4F\	glo-
4E\	-ri-
=42-	=42-
2D/	-o-
2D,</	-sa
!LO:TX:t=P:problem=kreska pseudotaktowa	!
2D/	et
=43-	=43-
1A\	be-
1B-X\	-ne-
=44-	=44-
.	.
!LO:TX:t=P:problem=kreska pseudotaktowa	!
1A\	-di-
=45-	=45-
!LO:LB:g=original	!
2D\	-cta
2r	.
!LO:TX:t=P:problem=kreska pseudotaktowa	!
2r	.
=46-	=46-
2.D/	Vir-
4D/	-go
4C/	glo-
4BBn/	-ri-
=47-	=47-
2AA/	-o-
2AA,</	-sa
!LO:TX:t=P:problem=kreska pseudotaktowa	!
2AA/	et
=48-	=48-
1E\	be-
1F\	-ne-
=49-	=49-
.	.
!LO:TX:t=P:problem=kreska pseudotaktowa	!
1E\	-di-
=50-	=50-
2AA,</	-cta
2A\	be-
!LO:TX:t=P:problem=kreska pseudotaktowa	!
2G#X\	-ne-
=51-	=51-
!LO:TX:t=P:problem=kreska pseudotaktowa	!
1.A\	-di-
=52-	=52-
!LO:TX:b:i:t=O.\nad M. D. G.	!
0.E\;	-cta
=53-	=53-
.	.
==	==
*-	*-
!!!RDF**kern: > = above
!!!RDF**kern: < = below
!!!EED: Andrzej Borzym
!!!EST: 2021-04-08
!!!ENC: Anastazja Marusiak
!!!END: 2021-03-16
